icons/i3-dark.svg

<svg width="256" height="256" viewBox="0 0 256 256" fill="none" xmlns="http://www.w3.org/2000/svg">
<path d="M196 0H60C26.8629 0 0 26.8629 0 60V196C0 229.137 26.8629 256 60 256H196C229.137 256 256 229.137 256 196V60C256 26.8629 229.137 0 196 0Z" fill="#282828"/>
<path d="M121.145 99.8123L170.246 148.913C175.832 154.499 175.832 163.556 170.246 169.142C164.66 174.728 155.603 174.728 150.017 169.142L100.916 120.041L121.145 99.8123Z" fill="#00AAD4"/>
<circle cx="149.833" cy="72.2273" r="14.304" transform="rotate(-45 149.833 72.2273)" fill="#00AAD4"/>
<circle cx="111.582" cy="110.478" r="14.304" transform="rotate(-45 111.582 110.478)" fill="#00AAD4"/>
<circle cx="71.4921" cy="150.569" r="14.304" transform="rotate(-45 71.4921 150.569)" fill="#00AAD4"/>
<path fill-rule="evenodd" clip-rule="evenodd" d="M139.167 81.7898L81.0547 139.902L81.0548 139.902L60.8257 160.131L107.168 206.474C134.388 233.693 178.519 233.693 205.738 206.474C232.958 179.254 232.958 135.123 205.738 107.904L159.396 61.5611L139.167 81.7899L139.167 81.7898ZM139.167 81.7899L81.0548 139.902L129.604 188.451C145.651 204.499 171.669 204.499 187.716 188.451C203.764 172.404 203.764 146.386 187.716 130.339L139.167 81.7899Z" fill="#00AAD4"/>
<circle cx="119.306" cy="40.2288" r="14.304" transform="rotate(-45 119.306 40.2288)" fill="#00AAD4"/>
<circle cx="81.0546" cy="78.48" r="14.304" transform="rotate(-45 81.0546 78.48)" fill="#00AAD4"/>
<circle cx="40.9648" cy="118.57" r="14.304" transform="rotate(-45 40.9648 118.57)" fill="#00AAD4"/>
</svg>

<svg xmlns="http://www.w3.org/2000/svg" width="256" height="256" fill="none"><path fill="#282828" d="M196 0H60C26.863 0 0 26.863 0 60v136c0 33.137 26.863 60 60 60h136c33.137 0 60-26.863 60-60V60c0-33.137-26.863-60-60-60"/><path fill="#00AAD4" d="m121.145 99.812 49.101 49.101c5.586 5.586 5.586 14.643 0 20.229s-14.643 5.586-20.229 0l-49.101-49.101z"/><circle cx="149.833" cy="72.227" r="14.304" fill="#00AAD4" transform="rotate(-45 149.833 72.227)"/><circle cx="111.582" cy="110.478" r="14.304" fill="#00AAD4" transform="rotate(-45 111.582 110.478)"/><circle cx="71.492" cy="150.569" r="14.304" fill="#00AAD4" transform="rotate(-45 71.492 150.569)"/><path fill="#00AAD4" fill-rule="evenodd" d="m139.167 81.79-58.112 58.112-20.23 20.229 46.343 46.343c27.22 27.219 71.351 27.219 98.57 0 27.22-27.22 27.22-71.351 0-98.57l-46.342-46.343zm0 0-58.112 58.112 48.549 48.549c16.047 16.048 42.065 16.048 58.112 0s16.048-42.065 0-58.112z" clip-rule="evenodd"/><circle cx="119.306" cy="40.229" r="14.304" fill="#00AAD4" transform="rotate(-45 119.306 40.229)"/><circle cx="81.055" cy="78.48" r="14.304" fill="#00AAD4" transform="rotate(-45 81.055 78.48)"/><circle cx="40.965" cy="118.57" r="14.304" fill="#00AAD4" transform="rotate(-45 40.965 118.57)"/></svg>
